img/icon-license-2.svg

<svg fill="none" height="15" viewBox="0 0 16 15" width="16" xmlns="http://www.w3.org/2000/svg"><path clip-rule="evenodd" d="m8.74991.75c0-.198912-.07902-.389678-.21967-.53033-.14066-.1406524-.33142-.21967-.53033-.21967-.19892 0-.38968.0790176-.53033.21967-.14066.140652-.21967.331418-.21967.53033v1.25h-.984c-.305 0-.604.08-.869.23l-1.288.737c-.03806.02177-.08116.03315-.125.033h-2.234c-.19892 0-.38968.07902-.53033.21967-.14066.14065-.219673.33142-.219673.53033s.079013.38968.219673.53033c.14065.14065.33141.21967.53033.21967h.428l-2.1120034 4.692c-.06238195.13881-.0810601.29331-.0535537.44299s.0998951.28745.2075541.39501l.53-.53-.53.53v.001l.002.002.002.002.006.006.016.015.045.04c.210311.1763.440547.3273.686.45.629703.307 1.322493.4625 2.023003.454.88 0 1.556-.22 2.023-.454.24544-.1227.47568-.2737.686-.45l.045-.04.016-.015.006-.006.002-.002.001-.002-.529-.531.53.53c.10766-.10756.18004-.24533.20755-.39501s.00883-.30418-.05355-.44299l-2.112-4.692h.162c.305 0 .604-.08.869-.23l1.289-.737c.03776-.0216.0805-.03298.124-.033h.984v9.5h-2.5c-.19892 0-.38968.079-.53033.2197-.14066.1406-.21967.3314-.21967.5303s.07901.3897.21967.5303c.14065.1407.33141.2197.53033.2197h6.49999c.1989 0 .3897-.079.5303-.2197.1407-.1406.2197-.3314.2197-.5303s-.079-.3897-.2197-.5303c-.1406-.1407-.3314-.2197-.5303-.2197h-2.49999v-9.5h.984c.0435.00002.08624.0114.124.033l1.28999.736c.264.152.563.231.868.231h.162l-2.112 4.692c-.0624.13881-.08105.29331-.0535.44299.0275.14968.0998.28745.2075.39501l.53-.53-.53.53v.001l.002.002.002.002.006.006.016.015.045.04c.2103.1762.4406.3273.686.45.6297.307 1.3225.4625 2.023.454.88 0 1.556-.22 2.023-.454.2455-.1227.4757-.2737.686-.45l.045-.04.01-.01.006-.005.006-.006.002-.002.001-.002-.529-.531.53.53c.1077-.10756.1801-.24533.2076-.39501s.0088-.30418-.0536-.44299l-2.111-4.692h.427c.1989 0 .3897-.07902.5303-.21967.1407-.14065.2197-.33142.2197-.53033s-.079-.38968-.2197-.53033c-.1406-.14065-.3314-.21967-.5303-.21967h-2.234c-.0435-.00002-.0862-.0114-.124-.033l-1.29-.736c-.264-.15104-.5628-.23065-.86699-.231h-.985zm-7.055 8.477c.285.135.718.273 1.305.273s1.02-.138 1.305-.273l-1.305-2.9zm9.99999 0c.285.135.718.273 1.305.273s1.02-.138 1.305-.273l-1.305-2.9z" fill="#000" fill-rule="evenodd"/></svg>

<svg width="16" height="15" viewBox="0 0 16 15" fill="none" xmlns="http://www.w3.org/2000/svg">
<path fill-rule="evenodd" clip-rule="evenodd" d="M8.74991 0.75C8.74991 0.551088 8.67089 0.360322 8.53024 0.21967C8.38958 0.0790176 8.19882 0 7.99991 0C7.80099 0 7.61023 0.0790176 7.46958 0.21967C7.32892 0.360322 7.24991 0.551088 7.24991 0.75V2H6.26591C5.96091 2 5.66191 2.08 5.39691 2.23L4.10891 2.967C4.07085 2.98877 4.02775 3.00015 3.98391 3H1.74991C1.55099 3 1.36023 3.07902 1.21958 3.21967C1.07892 3.36032 0.999907 3.55109 0.999907 3.75C0.999907 3.94891 1.07892 4.13968 1.21958 4.28033C1.36023 4.42098 1.55099 4.5 1.74991 4.5H2.17791L0.0659066 9.192C0.00352465 9.33081 -0.0151535 9.48531 0.0123529 9.63499C0.0398593 9.78467 0.112248 9.92244 0.219907 10.03L0.749907 9.5L0.219907 10.03V10.031L0.221907 10.033L0.223907 10.035L0.229907 10.041L0.245907 10.056L0.290907 10.096C0.501218 10.2723 0.731454 10.4233 0.976907 10.546C1.60661 10.853 2.2994 11.0085 2.99991 11C3.87991 11 4.55591 10.78 5.02291 10.546C5.26835 10.4233 5.49859 10.2723 5.70891 10.096L5.75391 10.056L5.76991 10.041L5.77591 10.035L5.77791 10.033L5.77891 10.031L5.24991 9.5L5.77991 10.03C5.88757 9.92244 5.95995 9.78467 5.98746 9.63499C6.01497 9.48531 5.99629 9.33081 5.93391 9.192L3.82191 4.5H3.98391C4.28891 4.5 4.58791 4.42 4.85291 4.27L6.14191 3.533C6.17967 3.5114 6.22241 3.50002 6.26591 3.5H7.24991V13H4.74991C4.55099 13 4.36023 13.079 4.21958 13.2197C4.07892 13.3603 3.99991 13.5511 3.99991 13.75C3.99991 13.9489 4.07892 14.1397 4.21958 14.2803C4.36023 14.421 4.55099 14.5 4.74991 14.5H11.2499C11.4488 14.5 11.6396 14.421 11.7802 14.2803C11.9209 14.1397 11.9999 13.9489 11.9999 13.75C11.9999 13.5511 11.9209 13.3603 11.7802 13.2197C11.6396 13.079 11.4488 13 11.2499 13H8.74991V3.5H9.73391C9.77741 3.50002 9.82015 3.5114 9.85791 3.533L11.1479 4.269C11.4119 4.421 11.7109 4.5 12.0159 4.5H12.1779L10.0659 9.192C10.0035 9.33081 9.98485 9.48531 10.0124 9.63499C10.0399 9.78467 10.1122 9.92244 10.2199 10.03L10.7499 9.5L10.2199 10.03V10.031L10.2219 10.033L10.2239 10.035L10.2299 10.041L10.2459 10.056L10.2909 10.096C10.5012 10.2722 10.7315 10.4233 10.9769 10.546C11.6066 10.853 12.2994 11.0085 12.9999 11C13.8799 11 14.5559 10.78 15.0229 10.546C15.2684 10.4233 15.4986 10.2723 15.7089 10.096L15.7539 10.056L15.7639 10.046L15.7699 10.041L15.7759 10.035L15.7779 10.033L15.7789 10.031L15.2499 9.5L15.7799 10.03C15.8876 9.92244 15.96 9.78467 15.9875 9.63499C16.015 9.48531 15.9963 9.33081 15.9339 9.192L13.8229 4.5H14.2499C14.4488 4.5 14.6396 4.42098 14.7802 4.28033C14.9209 4.13968 14.9999 3.94891 14.9999 3.75C14.9999 3.55109 14.9209 3.36032 14.7802 3.21967C14.6396 3.07902 14.4488 3 14.2499 3H12.0159C11.9724 2.99998 11.9297 2.9886 11.8919 2.967L10.6019 2.231C10.3379 2.07996 10.0391 2.00035 9.73491 2H8.74991V0.75ZM1.69491 9.227C1.97991 9.362 2.41291 9.5 2.99991 9.5C3.58691 9.5 4.01991 9.362 4.30491 9.227L2.99991 6.327L1.69491 9.227ZM11.6949 9.227C11.9799 9.362 12.4129 9.5 12.9999 9.5C13.5869 9.5 14.0199 9.362 14.3049 9.227L12.9999 6.327L11.6949 9.227Z" fill="black"/>
</svg>
